src/icons/icons_set_01/003-google.svg

<svg height="50" viewBox="0 0 50 50" width="50" xmlns="http://www.w3.org/2000/svg"><g transform="translate(3.995 11.711122)"><path d="m.23791378 12.6715878c.14574898-6.83091178 6.406525-12.79161637 13.15384542-12.5729929 3.2707786-.14574898 6.3229337 1.23672296 8.7878061 3.27077857-1.0845439 1.23672296-2.1733745 2.39842806-3.337223 3.48940204-2.9814239-2.10907347-7.2681586-2.68992602-10.24529587-.29149796-4.2867347 2.97928061-4.50107143 9.95594135-.36437245 13.15384545 3.99738012 3.6437244 11.62776782 1.8175755 12.71874182-3.7787567-2.544177-.0707311-5.0154796 0-7.5575132-.0707311v-4.5117883h12.6458673c.2143367 3.5601332-.2143367 7.2660153-2.3984281 10.245296-3.2707785 4.6511071-9.8830668 5.9585612-15.042152 3.9973801-5.15908521-1.9611812-8.78780613-7.4139077-8.35913266-12.9373653z"/><path d="m34.2488668 7.65610816h3.7787567v3.77875664h3.7787566v3.7830434h-3.7787566v3.7787566h-3.7787567v-3.7787566c-1.2367229 0-2.544177 0-3.7787566-.0728745v-3.7851868h3.7787566z"/></g></svg>

<?xml version="1.0" encoding="UTF-8"?>
<svg width="50px" height="50px" viewBox="0 0 50 50" version="1.1" xmlns="http://www.w3.org/2000/svg" xmlns:xlink="http://www.w3.org/1999/xlink">
    <!-- Generator: Sketch 52.4 (67378) - http://www.bohemiancoding.com/sketch -->
    <title>003-google</title>
    <desc>Created with Sketch.</desc>
    <g id="003-google" stroke="none" stroke-width="1" fill="none" fill-rule="evenodd">
        <g id="Group" transform="translate(3.995000, 11.711122)" fill="#000000" fill-rule="nonzero">
            <g id="037-google+">
                <g id="ICONSET-01">
                    <g id="037-google+">
                        <path d="M0.237913776,12.6715878 C0.383662755,5.84067602 6.64443878,-0.120028571 13.3917592,0.098594898 C16.6625378,-0.0471540816 19.7146929,1.33531786 22.1795653,3.36937347 C21.0950214,4.60609643 20.0061908,5.76780153 18.8423423,6.85877551 C15.8609184,4.74970204 11.5741837,4.16884949 8.59704643,6.56727755 C4.31031173,9.54655816 4.095975,16.5232189 8.23267398,19.721123 C12.2300541,23.3648474 19.8604418,21.5386985 20.9514158,15.9423663 C18.4072388,15.8716352 15.9359362,15.9423663 13.3939026,15.8716352 L13.3939026,11.3598469 L26.0397699,11.3598469 C26.2541066,14.9199801 25.8254332,18.6258622 23.6413418,21.6051429 C20.3705633,26.25625 13.758275,27.5637041 8.5991898,25.602523 C3.44010459,23.6413418 -0.188616327,18.1886153 0.240057143,12.6651577 L0.237913776,12.6715878 Z" id="Shape"></path>
                        <path d="M34.2488668,7.65610816 L38.0276235,7.65610816 L38.0276235,11.4348648 L41.8063801,11.4348648 L41.8063801,15.2179082 L38.0276235,15.2179082 L38.0276235,18.9966648 L34.2488668,18.9966648 L34.2488668,15.2179082 C33.0121439,15.2179082 31.7046898,15.2179082 30.4701102,15.1450337 L30.4701102,11.3598469 L34.2488668,11.3598469 L34.2488668,7.65610816 Z" id="Shape"></path>
                    </g>
                </g>
            </g>
        </g>
    </g>
</svg>
